X:1
T:Spogan
M:C|
L:1/8
Q:80
C:Donald Morrison
S:Hornpipe
K:HP
g[ | \
{a}B/2d/2{g}e/2d/2{g}B{e}A | \
{g}AG/2A/2{g}B{e}A | \
{g}B/2d/2{g}e/2d/2{g}B{e}A |
{g}B{g}e{A}eg | \
{a}B/2d/2{g}e/2d/2{g}B{e}A | \
{g}AG/2A/2{g}B{Gdc}d |
{g}e/2f/2{g}e/2d/2{g}B{e}A | \
{g}B{g}e{A}e :| \
f[ |
{gf}ga/2g/2{a}fg/2f/2 | \
{g}e/2f/2{g}e/2d/2{g}B{Gdc}d | \
{g}e/2f/2{g}e/2d/2{g}B{e}A |
{g}B{g}e{A}ef|1
{gf}ga/2g/2{a}fg/2f/2 | \
{g}e/2f/2{g}e/2d/2{g}B{Gdc}d |
{g}e/2f/2{g}e/2d/2{g}B{e}A | \
{g}B{g}e{A}e:|2
g |
{a}B/2d/2{g}e/2d/2{g}B{e}A | \
{g}AG/2A/2{g}B{Gdc}d | \
{g}e/2f/2{g}e/2d/2{g}B{e}A |
{g}B{g}e{A}e|]
g[ | \
{a}B/2d/2{g}e/2d/2{g}B{e}A | \
{g}B{e}G{g}B{e}A |
{g}B/2d/2{g}e/2d/2{g}B{e}A | \
{g}B{g}e{A}eg | \
{a}B/2d/2{g}e/2d/2{g}B{e}A |
{g}B{e}G{g}B{Gdc}d | \
{g}e/2f/2{g}e/2d/2{g}B{e}A | \
{g}B{g}e{A}e :|
g | \
{a}fg/2f/2{g}e/2f/2{g}e/2d/2 | \
{g}B{e}A{g}Bg | \
{a}fg/2f/2{g}e/2f/2{g}e/2d/2 |
{g}B{g}e{A}eg|1 {a}fg/2f/2{g}e/2f/2{g}e/2d/2 | \
{g}B{e}A{g}B{Gdc}d | \
{g}e/2f/2{g}e/2d/2{g}B{e}A |
{g}B{g}e{A}e:|2
{a}B/2d/2{g}e/2d/2{g}B{e}A | \
{g}B{e}G{g}B{Gdc}d |
{g}e/2f/2{g}e/2d/2{g}B{e}A | \
{g}B{g}e{A}e|]
